X:180
T:Dervaig Medley, The
R:Jig
N:"Old Isle of Mull Tune"
B:The Athole Collection
M:6/8
L:1/8
K:D
B|AFF F3|F2A d2B|AFF F2B|A2F E2B|AFF F3|F2A d2e|fdd d2B|A2F D2:|
e|fdd d2d|d2d d2e|fdd d2f|e2c A2e|fdd d2d|d2d d2d|BGG G2B|A2F D2e|
fdd d2d|d2d d2e|fdd d2f|e2c A2e|fdd dAA|BAA dAA|BGG AFF|A2F D2||

